X:957
T:Reel 957
M:4/4
K:Amaj
L:1/8
GA|BEEF GABA|BEEF GABA|GEEF GABA|BedB AcBA|GEEF GEGA|BeeA dBcA|GEEF GABA|GEDB, A,2|Bc|d2dB A2BA|Beed BAAB|GEED GABc|BedB A2GA|Beed BdBA|Beed Beef|Beef edBe|dBAB A2|
